icon/gr/spotify.svg

<svg xmlns="http://www.w3.org/2000/svg" viewBox="0 0 24 24" height="1em" width="1em">
  <path fill="#1ED760" fill-rule="evenodd" d="M19.0983701,10.6382791 C15.230178,8.34118115 8.85003755,8.12986439 5.15729493,9.25058527 C4.56433588,9.43062856 3.93727638,9.09580812 3.75758647,8.50284907 C3.57789655,7.90953664 3.91236362,7.28283051 4.50585273,7.10261054 C8.74455585,5.81598127 15.7909802,6.06440214 20.2440037,8.70780512 C20.7774195,9.02442687 20.9525156,9.71332656 20.6362472,10.2456822 C20.3198021,10.779098 19.6305491,10.9549008 19.0983701,10.6382791 M18.971686,14.0407262 C18.7004726,14.4810283 18.1246521,14.6190203 17.6848801,14.3486903 C14.4600027,12.3664473 9.54264764,11.792217 5.72728477,12.9503953 C5.23256328,13.0998719 4.70992535,12.8208843 4.55974204,12.3270462 C4.41061884,11.8323247 4.68978312,11.3107469 5.18362118,11.1602103 C9.5419409,9.83771368 14.9600247,10.4782013 18.6638986,12.7544503 C19.1036707,13.0253103 19.242016,13.6013075 18.971686,14.0407262 M17.5034233,17.308185 C17.2876894,17.6617342 16.827245,17.7725165 16.4749326,17.5571359 C13.6571403,15.8347984 10.1101639,15.4459119 5.93312425,16.4000177 C5.53063298,16.4922479 5.12937851,16.2399399 5.03767834,15.8376253 C4.94544812,15.4351341 5.19669597,15.0338796 5.60024736,14.9420027 C10.1712973,13.8970803 14.0923186,14.3467468 17.2551791,16.2796943 C17.6078449,16.4948982 17.7189805,16.9556959 17.5034233,17.308185 M12,0 C5.37267547,0 0,5.37249879 0,11.9998233 C0,18.6278546 5.37267547,24 12,24 C18.6275012,24 24,18.6278546 24,11.9998233 C24,5.37249879 18.6275012,0 12,0"/>
</svg>

<svg xmlns="http://www.w3.org/2000/svg" width="24" height="24"><path fill="#1ED760" fill-rule="evenodd" d="M19.098 10.638C15.23 8.341 8.85 8.13 5.158 9.251a1.122 1.122 0 1 1-.652-2.148C8.745 5.816 15.79 6.064 20.244 8.708a1.122 1.122 0 1 1-1.146 1.93m-.126 3.403a.936.936 0 0 1-1.287.308c-3.225-1.983-8.142-2.557-11.958-1.399a.937.937 0 0 1-1.167-.623.937.937 0 0 1 .624-1.167c4.358-1.322 9.776-.682 13.48 1.594.44.271.578.847.308 1.287m-1.469 3.267a.748.748 0 0 1-1.028.25c-2.818-1.723-6.365-2.112-10.542-1.158a.748.748 0 1 1-.333-1.458c4.571-1.045 8.492-.595 11.655 1.338a.748.748 0 0 1 .248 1.028M12 0C5.373 0 0 5.372 0 12s5.373 12 12 12c6.628 0 12-5.372 12-12S18.628 0 12 0"/></svg>
